X: 1
T: the New Brig O'Ayr
N: Suggested tune for the dance Muckle Ado
B: Kerr's Merry Melodies, Book III, No. 156
C: Traditional
Z: arranged by Terry Traub, 2002-4-9
M: 4/4
L: 1/8
R: Reel
K: F
C2 |:\
"F" F2 Ac f2 cA | "F"cdcA cdcA | "Bb" B2 GB "F" A2 FA |\
[1 "G7" GAGF "C" ECDE :|[2 "C" GFEG "F" F2 c2 |
|: "F" fgfe fcAc | "Bb" defd "F" cAFA | "Gm" B2 GB "F"A2 FA |\
[1 "G7"GAGF "C"Ec C2 :|[2 "C" GFEG "F" F2 |]
